X:1
T:Polska frn Fjllns
R:Polska
Z:Klas Krantz, 2006
O:Hrjedalen
L:1/8
M:3/4
K:G
"G"G2G>B "D7"A>F | "G"G2B>dg2 | "Am"a2a>g "D7"fe/f/ |1 "G"g2b>g "D7"d>B :|2 "G"g2g4 |
|: "G"d2B>d g>f | "C"e2e>dc2 | "D7"a2a>g fe/f/ |1 "G"g2b>g "D7"d>B :|2 "G"g2g4 |]
